X:17
T:Merry Blacksmith, The
R:reel
H:See also "Devils of Dublin", #868
Z:id:hn-reel-17
M:C|
K:D
d2dA BAFA|ABdA BAFA|ABde fded|Beed egfe|
d2dA BAFA|ABdA BAFA|ABde fdec|dBAF D4:|
|:a2ag f2fe|d2dA BAFA|ABde fded|Beed egfe|
a2ag f2fe|d2dA BAFA|ABde fdec|dBAF D4:|
<end>
<start>
